X:1
T:Ally Croker
L:1/8
Q:80
M:3/4
K:G
G2GG | G2G2 | AGFG | ABcd | BGGG | G2G2 | AGFG | ABc2 :: \
Bcd2dd | d2d2 | edcB | ABc2 | ABc2cc | c2c2 | dcBA | GAB2 |